X: 112
T: the Soldiers Daughter
%R: reel
Z: 2014 John Chambers <jc:trillian.mit.edu>
B: Thompson "Twenty four Country Dances for the Year 1805" p.11 #2
F: http://folkopedia.efdss.org/images/2/2a/Thompson_24_1805.PDF 2014-8-13
M: 2/4
L: 1/16
K: F
[|\
[f2A2][f2A2] [f4A4] | [c'2e2][c'2e2] [c'4e4] | afef cfef | gfed c4 |\
[f2A2][f2A2] [f4A4] | c'2c'2 c'4 | afef cfeg | f4- f4 |]
[|\
c2c2d2c2 | f2e2e2d2 | c2c2 dcBA | G2G2 G4 |\
c2c2d2c2 | f2e2d2c2 | e2g2f2a2 | g2=B2 H"_D.C."c4 |]
% - - - - - - - - - - - - - - - - - - - - - - - - -
%%begintext align
%% Hey contrary sides, then your outsides,
%% lead down the middle up again, hands 6
%% quite round.
%%endtext
% - - - - - - - - - - - - - - - - - - - - - - - - -
